icons/folder-java.svg

<svg xmlns="http://www.w3.org/2000/svg" viewBox="0 0 32 32"><path fill="#ef5350" d="m13.844 7.536-1.288-1.072A2 2 0 0 0 11.276 6H4a2 2 0 0 0-2 2v16a2 2 0 0 0 2 2h24a2 2 0 0 0 2-2V10a2 2 0 0 0-2-2H15.124a2 2 0 0 1-1.28-.464Z"/><path fill="#ffcdd2" d="M14 26h16v2H14z"/><path fill="#ffcdd2" fill-rule="evenodd" d="M31 12H16v8a4 4 0 0 0 4 4h4a4 4 0 0 0 4-4h3a1 1 0 0 0 1-1v-6a1 1 0 0 0-1-1Zm-1 6h-2v-4h2Z"/></svg>

<svg xmlns="http://www.w3.org/2000/svg" viewBox="0 0 32 32">
  <path d="M13.84376,7.53645l-1.28749-1.0729A2,2,0,0,0,11.27591,6H4A2,2,0,0,0,2,8V24a2,2,0,0,0,2,2H28a2,2,0,0,0,2-2V10a2,2,0,0,0-2-2H15.12412A2,2,0,0,1,13.84376,7.53645Z" style="fill: #ef5350"/>
  <g>
    <rect x="14" y="26" width="16" height="2" style="fill: #ffcdd2"/>
    <path d="M31,12H16v8a4,4,0,0,0,4,4h4a4,4,0,0,0,4-4h3a1,1,0,0,0,1-1V13A1,1,0,0,0,31,12Zm-1,6H28V14h2Z" style="fill: #ffcdd2;fill-rule: evenodd"/>
  </g>
</svg>
